svgs/light/vacuum-robot.svg

<svg xmlns="http://www.w3.org/2000/svg" viewBox="0 0 512 512"><!--! Font Awesome Pro 6.3.0 by @fontawesome - https://fontawesome.com License - https://fontawesome.com/license (Commercial License) Copyright 2023 Fonticons, Inc. --><path d="M235.3 212.7c-6.25-6.25-16.38-6.25-22.63 0s-6.25 16.38 0 22.63l64 64C279.8 302.4 283.9 303.1 288 303.1s8.188-1.563 11.31-4.688c6.25-6.25 6.25-16.38 0-22.63L235.3 212.7zM155.3 228.7c-6.25-6.25-16.38-6.25-22.62 0s-6.25 16.38 0 22.63l128 128c3.125 3.125 7.219 4.688 11.31 4.688s8.188-1.563 11.31-4.688c6.25-6.25 6.25-16.38 0-22.63L155.3 228.7zM139.3 308.7c-6.25-6.25-16.38-6.25-22.63 0s-6.25 16.38 0 22.63l64 64c3.125 3.125 7.219 4.688 11.31 4.688s8.188-1.563 11.31-4.688c6.25-6.25 6.25-16.38 0-22.63L139.3 308.7zM380.6 131.3c-33.7-33.69-78.86-52.44-124.8-51.34C209.8 80.56 166.1 99.28 132.7 132.7c-6.25 6.25-6.25 16.38 0 22.63s16.38 6.25 22.63 0c27.47-27.47 63.3-42.84 100.9-43.31c39.11 0 74.31 14.44 101.8 41.97c27.55 27.53 42.45 63.72 41.98 101.8c-.4687 37.56-15.84 73.41-43.31 100.9c-6.25 6.25-6.25 16.38 0 22.63c3.125 3.125 7.219 4.688 11.31 4.688s8.188-1.563 11.31-4.688c33.41-33.41 52.13-77.13 52.69-123.1C432.6 209.4 414.3 165 380.6 131.3zM256 0C114.8 0 0 114.8 0 256s114.8 256 256 256s256-114.8 256-256S397.2 0 256 0zM256 480c-123.5 0-224-100.5-224-224s100.5-224 224-224s224 100.5 224 224S379.5 480 256 480z"/></svg>

<svg xmlns="http://www.w3.org/2000/svg" viewBox="0 0 512 512"><!-- Font Awesome Pro 6.0.0-alpha2 by @fontawesome - https://fontawesome.com License - https://fontawesome.com/license (Commercial License) --><path d="M139.312 308.688C133.062 302.438 122.937 302.438 116.688 308.688S110.438 325.063 116.688 331.312L180.688 395.312C183.812 398.438 187.906 400 192 400S200.188 398.438 203.312 395.312C209.562 389.062 209.562 378.937 203.312 372.688L139.312 308.688ZM235.312 212.688C229.062 206.438 218.937 206.438 212.688 212.688S206.438 229.063 212.688 235.312L276.688 299.312C279.812 302.438 283.906 304 288 304S296.188 302.438 299.312 299.312C305.562 293.062 305.562 282.937 299.312 276.688L235.312 212.688ZM155.312 228.688C149.062 222.438 138.937 222.438 132.688 228.688S126.438 245.063 132.688 251.312L260.688 379.312C263.812 382.438 267.906 384 272 384S280.188 382.438 283.312 379.312C289.562 373.062 289.562 362.937 283.312 356.688L155.312 228.688ZM256 16C123.451 16 16 123.453 16 256S123.451 496 256 496S496 388.547 496 256S388.549 16 256 16ZM256 464C141.309 464 48 370.691 48 256S141.309 48 256 48S464 141.309 464 256S370.691 464 256 464ZM380.641 131.344C346.938 97.656 301.781 78.906 255.797 80C209.812 80.562 166.094 99.281 132.687 132.688C126.437 138.938 126.437 149.063 132.687 155.312S149.062 161.562 155.312 155.312C182.781 127.844 218.609 112.469 256.188 112C295.297 112 330.5 126.438 358.016 153.969C385.562 181.5 400.469 217.688 400 255.812C399.531 293.375 384.156 329.219 356.688 356.688C350.438 362.938 350.438 373.063 356.688 379.312C359.812 382.438 363.906 384 368 384S376.188 382.438 379.312 379.312C412.719 345.906 431.438 302.188 432 256.188C432.562 209.375 414.328 165.031 380.641 131.344Z"/></svg>
